X: 7820
T: Comely Jane Downing
R: reel
M: 4/4
K: Gmajor
G2 BG Bd d2|c2 ec eg g2|G2 BG Bd dg|edcB A2 G2:|
g2 bg afed|edef gdBd|g2 bg afed|edef g2 ga|
bagf gfed|edef gdBd|cBcd efge|dBGB A2 G2||

